X: 446
T: Within This Village Dwells a Maid
N:"Slow" "No. 1"
N:Irish title: annsa .baile seo co.mnai.deann aindear
B:O'Neill's 446
Z:Transcribed by henrik.norbeck@mailbox.swipnet.se
M:3/4
L:1/8
K:G
B>c | d2 g2 g>a | b2 d2 (B>c) | d2 (d>e) (d>c) | B2 G2 (B>c) |
d2 g2 (g>a) | b2 d2 "#"~d2 | e2 e>g f>e | d4 ||
B>c | d2 d2 (d>f) | g2 (dg/a/) bg | d2 B>c d>c | B2 G2 B>c |
{^c}d2 b2 a2 | g>a b2 d2 | (Bd) (cB) (A>B) | G4 ||


